X:1
T:Lord Randal
M:3/4
L:1/4
K:C
 C/2E/2 G G/2A/2|
M:2/4
 G/2E/2D/2 E/2|
M:3/4
 G E D| C2 G| c e e/2d/2| c G e| c GA/2-c/2| c2 G| c ee/2-d/2| c3/2 A/2c/2 A/2|\
 G E C| E2 C| G G3/2 A/2| E2 C/2E/2| G E D| C2||
